X:1
T:Title
%%score { ( 1 4 ) | ( 2 3 ) }
L:1/8
M:4/4
K:Ab
V:1 treble nm="Grand Piano"
V:4 treble 
V:2 bass 
V:3 bass 
V:1
 z4 z2[Q:1/4=94] (3CD=D | E>[CA] [CA]>[DB] [Ec]>[Ec] [DB]>[CA] | %2
 [DF]>[FB] [FA]>[DF] [CE]2 [CE]>[CE] | [DF]>[DF] [EF]>[EF] [Fe]>[Fe] [Fd]>[FB] | A4 G2 [CA]>[DB] | %5
 [Ec]>[Ec] [Ec]>[Ec] [_Ge]>[Ge] [Gc]>[GB] | [FA]>[FB] [FA]>[CF] [FA]2 G>F | %7
 E>A c>[Fd] [=Dc]>[DB] [Ec]>[_DB] |[M:11/16] [CA]/-[CA]/-[CA]/-[CA]/-[CA]-<[CA] z/ z | %9
[M:5/16] c<EB/ |[M:4/4] A6[K:bass][K:treble] z2 | G>A F>G C2 C>C | [=DB]2 [Dc]2 [DB]2 [DF]2 | %13
 B6 E>E | [CA]>[CA] B>B c2 [Ec]>[Ec] |[M:9/8] [_Ge]>[Ge][FA]- [FA]/[=EB]/ [_Ec]2- [Ec][=Gd]>[Gd] | %16
[M:4/4] [Ac] [Ae]3 [DGB]3 [EGc] |[M:3/4] [CEA]6 |] %18
V:2
 z4 z2 (3C,D,=D, | E,>[A,,E,] [A,,E,]>[A,,E,] [A,,A,]>[A,,A,] [A,,A,]>[A,,A,] | %2
 [D,A,]>[D,D] [D,D]>[D,A,] [A,,A,]2 [A,,A,]>[A,,A,] | %3
 [D,A,]>[D,A,] [C,=A,]>[C,A,] [B,,B,]>[B,,B,] [D,B,]>[D,D] | C4 z4 | %5
 [A,,A,]>[A,,A,] [A,,A,]>[A,,A,] [C,A,]>[C,A,] [C,A,]>[C,A,] | %6
 [D,A,]>[D,D] [D,D]>[D,A,] [D,D]2 [=D,A,B,]>[D,A,B,] | %7
 [E,A,C]>[E,A,C] [E,A,E]>[E,A,] [B,,A,]>[B,,A,] [E,G,]>[E,G,] | %8
[M:11/16] [A,,E,]/-[A,,E,]/-[A,,E,]/-[A,,E,]/-[A,,E,]-<[A,,E,] z/ z |[M:5/16] E<DD/ | %10
[M:4/4] C6 z2 | G,>A, F,>G, C,2 C,>C, | [B,,A,]2 [B,,A,]2 [B,,F,]2 [B,,A,]2 | %13
 [E,G,D]6 [E,G,D]>[E,B,D] | [A,,A,]>[A,,A,] [E,G,E]>[E,G,E] [A,E]2 [A,,A,]>[A,,A,] | %15
[M:9/8] [C,A,]>[C,A,][D,A,]- [D,A,]/[D,A,]/ [A,,A,]2- [A,,A,][B,,B,]>[B,,B,] | %16
[M:4/4] [E,A,] [E,C]3 E,3 E, |[M:3/4] A,,6 |] %18
V:3
 x8 | x8 | x8 | x8 | [E,E]4- [E,B,E]2 [A,,E,]>[A,,E,] | x8 | x8 | x8 |[M:11/16] x11/2 | %9
[M:5/16] x5/2 |[M:4/4] z z/ A,,/ A,,>A,, A,,2 (3CB,A, | x8 | x8 | x8 | x8 |[M:9/8] x9 |[M:4/4] x8 | %17
[M:3/4] x6 |] %18
V:4
 x8 | x8 | x8 | x8 | x8 | x8 | x8 | x8 |[M:11/16] x11/2 |[M:5/16] x5/2 | %10
[M:4/4] z z/[K:bass] E,/ E,>E, E,2[K:treble] (3cBA | x8 | x8 | x8 | x8 |[M:9/8] x9 |[M:4/4] x8 | %17
[M:3/4] x6 |] %18

